X:2906
T:Chatham Hornpipe. FK.29
M:C
L:1/8
Q:160
C:"MS 40 p.1"
S:Kidson's H'pipe MS,early 20thC.
R:Hornpipe
O:England
A:Leeds
N:
Z:vmp.John Bagnall
K:D
A2 | d2 (cB) AGFE | D2 EF G2 AG | F2 dc B2 ef | gfed dcBA |!
 d2 (cB) AGFE | D2 EF G2 AG | F2 dc Bgec | d2 f2 d2 :|!
AA | A2 fA A2 fA | A2 fe dcBA | B2 gf edcd | efed dcBA |!
 d2 (cB) AGFE |D2 EF G2 AG | F2 dc Bgec | d2 f2 d2 ||


